assets/svg/orders-black.svg

<svg height="21" viewBox="0 0 16 21" width="16" xmlns="http://www.w3.org/2000/svg"><path d="m968.894444 231.73125c-.05-.120312-.111111-.235156-.194444-.333594l-4.655556-5.014844c-.105555-.114843-.233333-.196875-.372222-.267968-.161111-.082031-.338889-.114844-.527778-.114844h-8.883333c-.688889 0-1.261111.579688-1.261111 1.307031v18.33125c0 .732813.572222 1.361719 1.261111 1.361719h13.505556c.688889 0 1.233333-.628906 1.233333-1.361719v-13.349219c0-.196875-.027778-.388281-.105556-.557812zm-13.227777.514063c0-.082032.1-.114844.188889-.114844h3.933333c.088889 0 .155555.032812.155555.114844v.590625c0 .076562-.061111.169531-.155555.169531h-3.933333c-.088889 0-.188889-.092969-.188889-.169531zm0 7c0-.082032.1-.114844.188889-.114844h6.788888c.088889 0 .133334.032812.133334.114844v.590625c0 .076562-.038889.169531-.133334.169531h-6.788888c-.088889 0-.188889-.092969-.188889-.169531zm8.888889 4.090625c0 .076562-.038889.169531-.133334.169531h-8.566666c-.088889 0-.188889-.092969-.188889-.169531v-.590625c0-.082032.1-.114844.188889-.114844h8.566666c.088889 0 .133334.032812.133334.114844zm1.777777-7c0 .076562-.038889.169531-.133333.169531h-10.344444c-.088889 0-.188889-.092969-.188889-.169531v-.590625c0-.082032.1-.114844.188889-.114844h10.344444c.088889 0 .133333.032812.133333.114844zm-2.605555-4.150782c-.311111 0-.616667-.284375-.616667-.617969v-3.609375l3.955556 4.227344z" fill="#111" transform="translate(-953 -226)"/></svg>

<?xml version="1.0" encoding="UTF-8"?>
<svg width="16px" height="21px" viewBox="0 0 16 21" version="1.1" xmlns="http://www.w3.org/2000/svg" xmlns:xlink="http://www.w3.org/1999/xlink">
    <!-- Generator: Sketch 48.2 (47327) - http://www.bohemiancoding.com/sketch -->
    <title>Shape</title>
    <desc>Created with Sketch.</desc>
    <defs></defs>
    <g id="Modal-Account" stroke="none" stroke-width="1" fill="none" fill-rule="evenodd" transform="translate(-953.000000, -226.000000)">
        <path d="M968.894444,231.73125 C968.844444,231.610938 968.783333,231.496094 968.7,231.397656 L964.044444,226.382812 C963.938889,226.267969 963.811111,226.185937 963.672222,226.114844 C963.511111,226.032813 963.333333,226 963.144444,226 L954.261111,226 C953.572222,226 953,226.579688 953,227.307031 L953,245.638281 C953,246.371094 953.572222,247 954.261111,247 L967.766667,247 C968.455556,247 969,246.371094 969,245.638281 L969,232.289062 C969,232.092187 968.972222,231.900781 968.894444,231.73125 Z M955.666667,232.245313 C955.666667,232.163281 955.766667,232.130469 955.855556,232.130469 L959.788889,232.130469 C959.877778,232.130469 959.944444,232.163281 959.944444,232.245313 L959.944444,232.835938 C959.944444,232.9125 959.883333,233.005469 959.788889,233.005469 L955.855556,233.005469 C955.766667,233.005469 955.666667,232.9125 955.666667,232.835938 L955.666667,232.245313 Z M955.666667,239.245313 C955.666667,239.163281 955.766667,239.130469 955.855556,239.130469 L962.644444,239.130469 C962.733333,239.130469 962.777778,239.163281 962.777778,239.245313 L962.777778,239.835938 C962.777778,239.9125 962.738889,240.005469 962.644444,240.005469 L955.855556,240.005469 C955.766667,240.005469 955.666667,239.9125 955.666667,239.835938 L955.666667,239.245313 Z M964.555556,243.335938 C964.555556,243.4125 964.516667,243.505469 964.422222,243.505469 L955.855556,243.505469 C955.766667,243.505469 955.666667,243.4125 955.666667,243.335938 L955.666667,242.745313 C955.666667,242.663281 955.766667,242.630469 955.855556,242.630469 L964.422222,242.630469 C964.511111,242.630469 964.555556,242.663281 964.555556,242.745313 L964.555556,243.335938 Z M966.333333,236.335938 C966.333333,236.4125 966.294444,236.505469 966.2,236.505469 L955.855556,236.505469 C955.766667,236.505469 955.666667,236.4125 955.666667,236.335938 L955.666667,235.745313 C955.666667,235.663281 955.766667,235.630469 955.855556,235.630469 L966.2,235.630469 C966.288889,235.630469 966.333333,235.663281 966.333333,235.745313 L966.333333,236.335938 Z M963.727778,232.185156 C963.416667,232.185156 963.111111,231.900781 963.111111,231.567187 L963.111111,227.957812 L967.066667,232.185156 L963.727778,232.185156 Z" id="Shape" fill="#111111" fill-rule="nonzero"></path>
    </g>
</svg>
